X: 20972
T: BLYTHE WAS SHE BUT AND BEN
%R: strathspey
B: "Edinburgh Repository of Music" v.2 p.97 #2
F: http://digital.nls.uk/special-collections-of-printed-music/pageturner.cfm?id=87776133
Z: 2015 John Chambers <jc:trillian.mit.edu>
N: Initial "pickup" rest added to fix the rhythm.
M: C|
L: 1/16
K: Em
z |\
B4 E3F A2D2FA3 | B3AF2d2 BAGF E4 |\
B4 ~E3F A2D2 GFED | E3F d3c BAGF E3 :|
|: F |\
D2d2d3e fed^c d2A2 | B2e2 e3f gfed B3d |\
A3B d3e fed^c d2A2 | B3A F2dc BAGF E3 :|

%%sep 2 1 500
%%sep 1 1 500

